ncols 98
nrows 98
xllcenter 0.00
yllcenter 0.00
cellsize 304.80
NODATA_value  -9999
6.88 7.08 7.28 7.48 7.70 7.91 8.14 8.37 8.62 8.87 9.13 9.41 9.69 9.99 10.31 10.64 10.99 11.35 11.74 12.15 12.59 13.05 13.54 14.06 14.62 15.22 15.85 16.54 17.27 18.06 18.91 19.79 20.69 21.66 22.72 23.89 25.18 26.58 28.09 29.79 31.73 33.87 36.29 39.11 42.32 46.25 50.34 50.82 46.77 42.93 39.67 36.88 34.40 32.26 30.26 28.50 26.95 25.53 24.21 23.02 21.93 20.94 20.03 19.15 18.28 17.47 16.72 16.03 15.38 14.78 14.22 13.69 13.20 12.73 12.30 11.89 11.50 11.13 10.78 10.45 10.13 9.83 9.54 9.26 9.00 8.74 8.50 8.26 8.03 7.81 7.59 7.38 7.18 6.98 6.79 6.60 6.41 6.22
6.99 7.18 7.38 7.59 7.80 8.02 8.24 8.48 8.72 8.97 9.23 9.50 9.78 10.08 10.39 10.72 11.06 11.42 11.81 12.21 12.64 13.10 13.59 14.11 14.66 15.25 15.89 16.57 17.29 18.08 18.93 19.81 20.70 21.67 22.73 23.89 25.18 26.58 28.09 29.79 31.73 33.86 36.29 39.10 42.31 46.25 50.33 50.82 46.78 42.94 39.68 36.88 34.41 32.26 30.26 28.51 26.96 25.54 24.22 23.03 21.94 20.95 20.05 19.17 18.30 17.50 16.75 16.06 15.42 14.82 14.27 13.74 13.25 12.79 12.36 11.95 11.57 11.20 10.86 10.53 10.21 9.91 9.63 9.35 9.09 8.83 8.59 8.35 8.12 7.90 7.69 7.48 7.28 7.08 6.88 6.69 6.50 6.30
7.10 7.29 7.49 7.70 7.91 8.12 8.35 8.58 8.82 9.07 9.33 9.60 9.88 10.17 10.48 10.80 11.14 11.50 11.88 12.28 12.71 13.16 13.64 14.16 14.71 15.29 15.92 16.60 17.32 18.10 18.94 19.82 20.71 21.68 22.74 23.90 25.18 26.58 28.09 29.79 31.72 33.86 36.29 39.10 42.30 46.24 50.33 50.83 46.79 42.95 39.68 36.89 34.41 32.26 30.27 28.51 26.96 25.54 24.23 23.04 21.96 20.97 20.06 19.19 18.32 17.53 16.79 16.10 15.46 14.87 14.32 13.80 13.31 12.86 12.43 12.02 11.64 11.28 10.93 10.61 10.30 10.00 9.71 9.44 9.18 8.93 8.68 8.45 8.22 8.00 7.79 7.58 7.37 7.18 6.98 6.78 6.58 6.39
7.21 7.40 7.60 7.81 8.02 8.23 8.46 8.69 8.92 9.17 9.43 9.69 9.97 10.26 10.57 10.89 11.23 11.58 11.95 12.35 12.77 13.22 13.70 14.21 14.75 15.34 15.96 16.63 17.35 18.13 18.96 19.84 20.73 21.69 22.74 23.90 25.19 26.58 28.09 29.79 31.72 33.86 36.28 39.09 42.30 46.23 50.32 50.83 46.79 42.95 39.69 36.89 34.42 32.27 30.27 28.52 26.97 25.55 24.24 23.05 21.97 20.99 20.08 19.21 18.35 17.56 16.82 16.14 15.51 14.92 14.37 13.85 13.37 12.92 12.50 12.10 11.72 11.36 11.02 10.69 10.39 10.09 9.81 9.54 9.28 9.02 8.78 8.55 8.32 8.10 7.89 7.68 7.48 7.27 7.07 6.87 6.67 6.48
7.32 7.52 7.72 7.92 8.13 8.35 8.57 8.80 9.03 9.28 9.53 9.80 10.07 10.36 10.67 10.98 11.31 11.67 12.04 12.43 12.84 13.29 13.76 14.27 14.80 15.38 16.00 16.66 17.38 18.15 18.99 19.86 20.74 21.70 22.75 23.91 25.19 26.58 28.09 29.78 31.72 33.85 36.28 39.09 42.29 46.23 50.32 50.84 46.80 42.96 39.70 36.90 34.42 32.27 30.28 28.53 26.98 25.56 24.25 23.06 21.98 21.00 20.10 19.24 18.38 17.59 16.86 16.18 15.55 14.97 14.42 13.91 13.44 12.99 12.57 12.17 11.80 11.44 11.10 10.78 10.48 10.18 9.90 9.63 9.37 9.12 8.88 8.65 8.42 8.20 7.99 7.78 7.57 7.36 7.16 6.96 6.76 6.57
7.43 7.63 7.83 8.04 8.25 8.46 8.68 8.91 9.15 9.39 9.64 9.91 10.18 10.47 10.77 11.08 11.41 11.75 12.12 12.51 12.92 13.36 13.82 14.32 14.86 15.43 16.04 16.70 17.41 18.18 19.01 19.88 20.76 21.71 22.76 23.92 25.19 26.59 28.09 29.78 31.72 33.85 36.27 39.08 42.29 46.22 50.31 50.85 46.81 42.97 39.70 36.90 34.43 32.28 30.28 28.53 26.98 25.57 24.26 23.07 22.00 21.02 20.13 19.26 18.41 17.62 16.90 16.23 15.60 15.02 14.48 13.98 13.51 13.06 12.65 12.25 11.88 11.53 11.20 10.88 10.57 10.28 10.00 9.74 9.48 9.23 8.99 8.75 8.53 8.31 8.10 7.88 7.67 7.46 7.25 7.05 6.86 6.66
7.54 7.74 7.95 8.16 8.37 8.58 8.80 9.03 9.26 9.51 9.76 10.02 10.29 10.57 10.87 11.18 11.51 11.85 12.21 12.59 13.00 13.43 13.89 14.39 14.92 15.48 16.09 16.74 17.45 18.21 19.04 19.90 20.77 21.73 22.77 23.92 25.20 26.59 28.09 29.78 31.71 33.85 36.27 39.08 42.28 46.21 50.30 50.85 46.82 42.97 39.71 36.91 34.43 32.29 30.29 28.54 26.99 25.58 24.27 23.09 22.02 21.04 20.15 19.29 18.44 17.66 16.94 16.27 15.66 15.08 14.55 14.05 13.58 13.14 12.73 12.34 11.97 11.62 11.29 10.97 10.67 10.38 10.11 9.84 9.58 9.34 9.10 8.86 8.64 8.42 8.20 7.98 7.77 7.56 7.35 7.15 6.95 6.76
7.66 7.86 8.06 8.27 8.49 8.70 8.92 9.15 9.38 9.63 9.88 10.13 10.40 10.69 10.98 11.29 11.61 11.95 12.31 12.68 13.09 13.51 13.97 14.45 14.98 15.54 16.14 16.79 17.49 18.24 19.06 19.92 20.79 21.74 22.79 23.93 25.20 26.59 28.09 29.78 31.71 33.84 36.26 39.07 42.27 46.20 50.30 50.86 46.82 42.98 39.71 36.91 34.44 32.29 30.29 28.55 27.00 25.59 24.28 23.10 22.04 21.06 20.18 19.32 18.48 17.70 16.99 16.33 15.71 15.14 14.61 14.12 13.66 13.22 12.81 12.43 12.06 11.72 11.39 11.08 10.78 10.49 10.21 9.95 9.69 9.45 9.21 8.97 8.75 8.52 8.30 8.08 7.86 7.65 7.45 7.25 7.05 6.85
7.78 7.98 8.18 8.39 8.61 8.83 9.05 9.28 9.51 9.75 10.00 10.26 10.52 10.80 11.09 11.40 11.72 12.05 12.41 12.78 13.18 13.60 14.05 14.53 15.04 15.60 16.20 16.84 17.53 18.28 19.10 19.95 20.82 21.76 22.80 23.94 25.21 26.60 28.09 29.78 31.71 33.84 36.26 39.07 42.27 46.20 50.29 50.86 46.83 42.99 39.72 36.92 34.44 32.30 30.30 28.55 27.01 25.60 24.30 23.12 22.06 21.09 20.20 19.35 18.52 17.75 17.04 16.38 15.77 15.21 14.69 14.20 13.74 13.31 12.91 12.52 12.16 11.82 11.49 11.18 10.88 10.60 10.33 10.06 9.81 9.56 9.32 9.09 8.86 8.63 8.40 8.18 7.97 7.76 7.55 7.34 7.14 6.95
7.90 8.10 8.31 8.52 8.73 8.95 9.18 9.41 9.64 9.88 10.13 10.38 10.65 10.93 11.21 11.52 11.83 12.16 12.51 12.88 13.27 13.69 14.13 14.61 15.12 15.67 16.26 16.89 17.58 18.32 19.13 19.98 20.84 21.78 22.81 23.95 25.22 26.60 28.09 29.78 31.71 33.84 36.26 39.06 42.26 46.19 50.28 50.87 46.84 42.99 39.72 36.93 34.45 32.30 30.31 28.56 27.02 25.61 24.31 23.14 22.08 21.11 20.23 19.39 18.56 17.79 17.09 16.44 15.84 15.28 14.76 14.28 13.83 13.40 13.00 12.62 12.27 11.93 11.60 11.29 11.00 10.71 10.44 10.18 9.92 9.68 9.44 9.20 8.96 8.73 8.51 8.29 8.07 7.86 7.65 7.45 7.24 7.05
8.02 8.23 8.43 8.64 8.86 9.08 9.30 9.53 9.77 10.01 10.26 10.51 10.78 11.05 11.34 11.64 11.95 12.28 12.63 12.99 13.38 13.79 14.23 14.69 15.19 15.74 16.32 16.95 17.63 18.37 19.17 20.01 20.87 21.80 22.83 23.97 25.23 26.61 28.10 29.78 31.71 33.84 36.25 39.06 42.25 46.18 50.28 50.87 46.84 43.00 39.73 36.93 34.45 32.31 30.31 28.57 27.03 25.63 24.33 23.16 22.10 21.14 20.27 19.43 18.60 17.85 17.15 16.51 15.91 15.36 14.85 14.37 13.92 13.50 13.10 12.73 12.37 12.04 11.72 11.41 11.11 10.83 10.56 10.30 10.04 9.80 9.55 9.31 9.07 8.84 8.62 8.39 8.18 7.96 7.75 7.55 7.35 7.15
8.15 8.35 8.56 8.77 8.99 9.21 9.43 9.67 9.90 10.15 10.39 10.65 10.91 11.18 11.47 11.77 12.08 12.40 12.74 13.11 13.49 13.89 14.32 14.79 15.28 15.81 16.39 17.01 17.68 18.42 19.21 20.05 20.89 21.83 22.85 23.98 25.24 26.61 28.10 29.78 31.71 33.83 36.25 39.05 42.25 46.18 50.27 50.88 46.85 43.01 39.73 36.94 34.46 32.31 30.32 28.58 27.04 25.64 24.34 23.18 22.13 21.17 20.30 19.47 18.65 17.90 17.21 16.58 15.99 15.44 14.93 14.46 14.02 13.60 13.21 12.84 12.49 12.15 11.83 11.53 11.24 10.95 10.68 10.42 10.17 9.92 9.67 9.42 9.19 8.95 8.73 8.50 8.29 8.07 7.86 7.65 7.45 7.25
8.28 8.48 8.69 8.90 9.12 9.34 9.57 9.80 10.04 10.28 10.53 10.79 11.05 11.32 11.61 11.90 12.21 12.53 12.87 13.23 13.60 14.00 14.43 14.88 15.37 15.90 16.46 17.08 17.75 18.47 19.26 20.08 20.93 21.85 22.87 24.00 25.25 26.62 28.11 29.79 31.71 33.83 36.24 39.05 42.24 46.17 50.26 50.89 46.86 43.01 39.74 36.94 34.46 32.32 30.33 28.59 27.05 25.66 24.36 23.20 22.16 21.21 20.34 19.52 18.71 17.96 17.28 16.65 16.07 15.53 15.03 14.56 14.12 13.71 13.32 12.95 12.61 12.27 11.96 11.65 11.36 11.08 10.81 10.55 10.29 10.03 9.78 9.54 9.30 9.07 8.84 8.62 8.40 8.18 7.97 7.76 7.55 7.35
8.41 8.61 8.82 9.04 9.25 9.48 9.71 9.94 10.18 10.42 10.67 10.93 11.19 11.47 11.75 12.04 12.35 12.67 13.00 13.35 13.73 14.12 14.54 14.99 15.47 15.99 16.55 17.15 17.81 18.53 19.31 20.13 20.96 21.88 22.89 24.01 25.26 26.63 28.11 29.79 31.71 33.83 36.24 39.04 42.24 46.16 50.26 50.89 46.86 43.02 39.74 36.95 34.47 32.33 30.34 28.60 27.07 25.67 24.39 23.23 22.19 21.25 20.39 19.57 18.76 18.03 17.35 16.73 16.16 15.62 15.13 14.67 14.23 13.82 13.44 13.08 12.73 12.40 12.09 11.78 11.49 11.21 10.94 10.68 10.41 10.16 9.90 9.66 9.42 9.19 8.96 8.73 8.51 8.29 8.08 7.87 7.66 7.46
8.54 8.75 8.96 9.17 9.39 9.62 9.85 10.08 10.32 10.57 10.82 11.08 11.34 11.61 11.89 12.19 12.49 12.81 13.14 13.49 13.86 14.25 14.66 15.10 15.58 16.09 16.64 17.23 17.88 18.59 19.36 20.18 21.00 21.92 22.92 24.04 25.28 26.64 28.12 29.79 31.71 33.83 36.24 39.04 42.23 46.16 50.25 50.90 46.87 43.03 39.75 36.95 34.48 32.34 30.35 28.61 27.08 25.69 24.41 23.26 22.23 21.29 20.44 19.62 18.83 18.10 17.43 16.82 16.25 15.72 15.23 14.78 14.35 13.95 13.56 13.20 12.86 12.53 12.22 11.92 11.63 11.35 11.08 10.80 10.54 10.28 10.03 9.78 9.54 9.30 9.07 8.85 8.62 8.40 8.19 7.98 7.77 7.56
8.67 8.88 9.09 9.31 9.53 9.76 9.99 10.22 10.47 10.71 10.97 11.23 11.49 11.77 12.05 12.34 12.64 12.95 13.28 13.63 14.00 14.38 14.79 15.23 15.69 16.20 16.74 17.32 17.96 18.66 19.42 20.23 21.05 21.95 22.95 24.06 25.29 26.65 28.12 29.79 31.71 33.83 36.23 39.04 42.22 46.15 50.24 50.90 46.88 43.03 39.76 36.96 34.48 32.34 30.36 28.62 27.10 25.71 24.44 23.29 22.26 21.33 20.49 19.68 18.90 18.18 17.52 16.91 16.35 15.83 15.35 14.90 14.47 14.07 13.70 13.34 13.00 12.67 12.36 12.06 11.77 11.49 11.21 10.93 10.67 10.41 10.15 9.91 9.66 9.43 9.19 8.96 8.74 8.52 8.30 8.09 7.88 7.67
8.81 9.02 9.23 9.45 9.68 9.90 10.14 10.37 10.61 10.86 11.12 11.38 11.65 11.92 12.21 12.50 12.80 13.11 13.44 13.78 14.14 14.52 14.93 15.36 15.82 16.31 16.84 17.42 18.05 18.74 19.49 20.29 21.10 22.00 22.99 24.09 25.31 26.67 28.13 29.80 31.71 33.82 36.23 39.03 42.22 46.14 50.24 50.91 46.89 43.04 39.76 36.97 34.49 32.35 30.37 28.64 27.12 25.74 24.47 23.33 22.31 21.39 20.55 19.75 18.97 18.26 17.61 17.01 16.46 15.95 15.47 15.02 14.60 14.21 13.83 13.48 13.14 12.82 12.50 12.20 11.91 11.62 11.34 11.07 10.80 10.54 10.28 10.03 9.79 9.55 9.32 9.08 8.86 8.63 8.42 8.20 7.99 7.78
8.94 9.16 9.37 9.59 9.82 10.05 10.28 10.52 10.77 11.02 11.27 11.54 11.80 12.08 12.37 12.66 12.96 13.27 13.60 13.94 14.30 14.67 15.07 15.50 15.95 16.44 16.96 17.53 18.15 18.82 19.57 20.35 21.16 22.04 23.02 24.12 25.34 26.68 28.14 29.81 31.71 33.82 36.23 39.03 42.21 46.14 50.23 50.92 46.89 43.05 39.77 36.97 34.50 32.36 30.38 28.65 27.14 25.76 24.50 23.37 22.36 21.44 20.61 19.83 19.06 18.35 17.71 17.12 16.58 16.07 15.60 15.16 14.74 14.35 13.98 13.63 13.29 12.97 12.65 12.35 12.05 11.76 11.48 11.20 10.93 10.67 10.42 10.16 9.92 9.68 9.44 9.21 8.98 8.75 8.53 8.31 8.10 7.89
9.08 9.30 9.52 9.74 9.97 10.20 10.44 10.68 10.92 11.17 11.43 11.70 11.97 12.24 12.53 12.83 13.13 13.44 13.76 14.10 14.46 14.83 15.23 15.65 16.09 16.57 17.09 17.65 18.25 18.92 19.65 20.43 21.22 22.10 23.07 24.15 25.36 26.70 28.16 29.81 31.71 33.82 36.23 39.02 42.21 46.13 50.23 50.92 46.90 43.05 39.77 36.98 34.50 32.37 30.39 28.67 27.16 25.79 24.54 23.41 22.41 21.50 20.69 19.91 19.15 18.46 17.82 17.24 16.70 16.20 15.74 15.30 14.89 14.50 14.13 13.78 13.44 13.12 12.81 12.50 12.20 11.90 11.62 11.34 11.07 10.81 10.55 10.30 10.05 9.81 9.57 9.33 9.10 8.87 8.65 8.43 8.21 8.00
9.22 9.44 9.66 9.89 10.12 10.35 10.59 10.83 11.08 11.34 11.60 11.86 12.13 12.41 12.70 13.00 13.30 13.62 13.94 14.28 14.63 15.00 15.39 15.80 16.25 16.72 17.23 17.77 18.37 19.02 19.74 20.51 21.29 22.16 23.12 24.19 25.39 26.72 28.17 29.82 31.72 33.82 36.22 39.02 42.20 46.12 50.22 50.93 46.91 43.06 39.78 36.99 34.51 32.38 30.41 28.69 27.19 25.83 24.58 23.47 22.47 21.57 20.76 19.99 19.25 18.56 17.94 17.37 16.84 16.34 15.88 15.45 15.04 14.66 14.29 13.94 13.60 13.28 12.96 12.65 12.35 12.05 11.77 11.49 11.22 10.95 10.69 10.43 10.18 9.94 9.69 9.46 9.22 8.99 8.77 8.54 8.32 8.11
9.36 9.58 9.81 10.03 10.27 10.50 10.75 10.99 11.24 11.50 11.76 12.03 12.30 12.59 12.87 13.17 13.48 13.80 14.12 14.46 14.81 15.18 15.56 15.97 16.41 16.87 17.37 17.91 18.50 19.14 19.84 20.60 21.37 22.23 23.17 24.24 25.43 26.75 28.19 29.83 31.72 33.83 36.22 39.02 42.19 46.12 50.21 50.93 46.91 43.07 39.79 36.99 34.52 32.40 30.42 28.71 27.21 25.86 24.62 23.52 22.54 21.65 20.85 20.09 19.36 18.68 18.07 17.50 16.98 16.49 16.04 15.61 15.21 14.82 14.46 14.11 13.77 13.44 13.11 12.80 12.50 12.20 11.92 11.64 11.36 11.09 10.83 10.57 10.32 10.07 9.82 9.58 9.35 9.11 8.89 8.66 8.44 8.22
9.50 9.72 9.95 10.18 10.42 10.66 10.90 11.15 11.41 11.67 11.93 12.20 12.48 12.76 13.05 13.35 13.66 13.98 14.31 14.65 15.00 15.36 15.75 16.15 16.58 17.04 17.53 18.06 18.64 19.27 19.96 20.70 21.46 22.30 23.24 24.29 25.47 26.78 28.21 29.85 31.73 33.83 36.22 39.01 42.19 46.11 50.21 50.94 46.92 43.07 39.79 37.00 34.53 32.41 30.44 28.74 27.25 25.91 24.68 23.59 22.61 21.74 20.95 20.20 19.48 18.81 18.21 17.65 17.14 16.65 16.20 15.78 15.38 15.00 14.63 14.28 13.93 13.60 13.28 12.96 12.66 12.36 12.07 11.79 11.51 11.24 10.97 10.71 10.45 10.20 9.96 9.71 9.47 9.24 9.01 8.78 8.55 8.33
9.64 9.87 10.10 10.33 10.57 10.82 11.06 11.32 11.57 11.84 12.10 12.38 12.66 12.94 13.24 13.54 13.85 14.17 14.50 14.84 15.19 15.56 15.94 16.34 16.77 17.22 17.71 18.23 18.79 19.41 20.09 20.81 21.56 22.39 23.31 24.35 25.51 26.81 28.24 29.86 31.74 33.83 36.22 39.01 42.18 46.10 50.20 50.94 46.93 43.08 39.80 37.01 34.54 32.43 30.47 28.77 27.29 25.95 24.74 23.66 22.70 21.83 21.05 20.32 19.61 18.96 18.36 17.81 17.30 16.82 16.38 15.96 15.56 15.18 14.81 14.45 14.10 13.77 13.44 13.13 12.82 12.52 12.23 11.94 11.66 11.39 11.12 10.85 10.59 10.34 10.09 9.84 9.60 9.36 9.13 8.89 8.66 8.44
9.76 10.00 10.25 10.49 10.73 10.97 11.23 11.48 11.74 12.01 12.28 12.56 12.84 13.13 13.43 13.73 14.04 14.36 14.70 15.04 15.39 15.76 16.14 16.54 16.96 17.41 17.89 18.40 18.96 19.57 20.23 20.94 21.67 22.49 23.40 24.42 25.57 26.85 28.26 29.88 31.75 33.84 36.22 39.01 42.18 46.10 50.19 50.95 46.94 43.09 39.81 37.02 34.56 32.44 30.49 28.80 27.33 26.01 24.80 23.74 22.79 21.94 21.17 20.45 19.75 19.11 18.52 17.98 17.48 17.00 16.56 16.14 15.74 15.36 14.99 14.63 14.28 13.94 13.61 13.30 12.99 12.68 12.39 12.10 11.81 11.54 11.26 11.00 10.73 10.48 10.22 9.97 9.73 9.48 9.24 9.01 8.78 8.55
9.88 10.12 10.38 10.63 10.88 11.13 11.39 11.65 11.91 12.18 12.46 12.74 13.03 13.32 13.62 13.93 14.24 14.57 14.90 15.25 15.60 15.97 16.36 16.75 17.17 17.62 18.09 18.60 19.14 19.74 20.39 21.08 21.80 22.60 23.49 24.50 25.63 26.90 28.30 29.91 31.76 33.84 36.22 39.00 42.17 46.09 50.19 50.96 46.94 43.10 39.82 37.03 34.57 32.46 30.52 28.84 27.38 26.07 24.88 23.83 22.90 22.06 21.31 20.60 19.91 19.28 18.70 18.16 17.66 17.20 16.76 16.34 15.94 15.55 15.17 14.81 14.46 14.12 13.79 13.47 13.16 12.85 12.55 12.26 11.97 11.69 11.41 11.14 10.87 10.61 10.36 10.10 9.85 9.61 9.36 9.12 8.89 8.66
9.99 10.24 10.50 10.76 11.02 11.29 11.55 11.82 12.08 12.36 12.64 12.92 13.21 13.51 13.81 14.13 14.45 14.77 15.11 15.46 15.82 16.19 16.58 16.98 17.40 17.84 18.30 18.80 19.34 19.92 20.56 21.24 21.94 22.72 23.60 24.59 25.71 26.96 28.34 29.93 31.78 33.85 36.22 39.00 42.17 46.08 50.18 50.96 46.95 43.11 39.83 37.04 34.59 32.49 30.55 28.88 27.44 26.14 24.97 23.93 23.01 22.19 21.45 20.75 20.08 19.46 18.89 18.36 17.86 17.40 16.96 16.54 16.13 15.74 15.37 15.00 14.65 14.31 13.97 13.65 13.33 13.02 12.72 12.42 12.13 11.84 11.56 11.29 11.02 10.75 10.49 10.23 9.98 9.73 9.48 9.24 9.00 8.77
10.11 10.36 10.62 10.89 11.15 11.43 11.70 11.99 12.26 12.54 12.82 13.11 13.40 13.71 14.01 14.33 14.65 14.99 15.33 15.68 16.04 16.41 16.80 17.21 17.63 18.07 18.53 19.02 19.55 20.13 20.75 21.42 22.11 22.87 23.73 24.69 25.79 27.03 28.39 29.97 31.80 33.86 36.23 39.00 42.16 46.08 50.17 50.97 46.96 43.11 39.84 37.06 34.60 32.51 30.59 28.94 27.51 26.23 25.07 24.05 23.15 22.34 21.62 20.93 20.26 19.65 19.09 18.56 18.07 17.61 17.17 16.75 16.34 15.95 15.57 15.20 14.84 14.50 14.16 13.83 13.51 13.19 12.88 12.58 12.29 12.00 11.71 11.43 11.16 10.89 10.62 10.36 10.10 9.85 9.60 9.36 9.12 8.88
10.22 10.48 10.74 11.01 11.28 11.56 11.84 12.13 12.42 12.71 13.00 13.30 13.60 13.90 14.22 14.54 14.87 15.20 15.55 15.90 16.27 16.65 17.04 17.45 17.87 18.31 18.77 19.26 19.78 20.35 20.96 21.62 22.29 23.03 23.87 24.82 25.89 27.11 28.45 30.01 31.83 33.88 36.23 39.00 42.16 46.07 50.17 50.97 46.97 43.12 39.85 37.07 34.63 32.55 30.64 29.00 27.58 26.33 25.19 24.19 23.30 22.51 21.79 21.12 20.46 19.86 19.31 18.79 18.30 17.83 17.39 16.96 16.55 16.15 15.77 15.40 15.04 14.69 14.35 14.01 13.69 13.37 13.05 12.75 12.45 12.15 11.86 11.58 11.30 11.02 10.75 10.49 10.23 9.97 9.72 9.47 9.23 8.99
10.34 10.60 10.86 11.14 11.41 11.69 11.98 12.27 12.57 12.87 13.18 13.49 13.79 14.10 14.42 14.75 15.08 15.42 15.77 16.14 16.51 16.89 17.28 17.69 18.12 18.56 19.03 19.51 20.03 20.59 21.19 21.83 22.49 23.22 24.03 24.96 26.01 27.20 28.53 30.06 31.86 33.90 36.24 39.00 42.16 46.07 50.16 50.98 46.98 43.13 39.86 37.09 34.65 32.58 30.69 29.07 27.68 26.44 25.32 24.34 23.47 22.69 21.99 21.33 20.68 20.09 19.54 19.02 18.53 18.06 17.61 17.18 16.77 16.37 15.98 15.61 15.24 14.89 14.54 14.20 13.87 13.54 13.23 12.91 12.61 12.31 12.01 11.72 11.44 11.16 10.89 10.62 10.36 10.10 9.84 9.59 9.34 9.10
10.45 10.71 10.98 11.26 11.54 11.82 12.12 12.41 12.71 13.02 13.34 13.66 13.99 14.30 14.63 14.96 15.30 15.65 16.01 16.37 16.75 17.14 17.54 17.95 18.38 18.83 19.29 19.78 20.30 20.85 21.44 22.07 22.72 23.43 24.23 25.12 26.15 27.32 28.62 30.13 31.91 33.92 36.26 39.01 42.15 46.06 50.16 50.99 46.98 43.14 39.87 37.11 34.68 32.63 30.75 29.16 27.78 26.57 25.47 24.51 23.66 22.90 22.21 21.55 20.92 20.33 19.78 19.27 18.77 18.30 17.85 17.42 17.00 16.59 16.20 15.82 15.45 15.09 14.73 14.39 14.05 13.72 13.40 13.08 12.77 12.46 12.16 11.87 11.58 11.30 11.02 10.75 10.48 10.22 9.96 9.70 9.45 9.21
10.56 10.83 11.10 11.38 11.66 11.95 12.25 12.55 12.86 13.17 13.49 13.82 14.15 14.49 14.84 15.18 15.52 15.88 16.24 16.61 17.00 17.39 17.80 18.22 18.65 19.10 19.57 20.07 20.58 21.13 21.72 22.34 22.97 23.67 24.44 25.32 26.31 27.45 28.72 30.21 31.96 33.96 36.27 39.01 42.15 46.05 50.15 50.99 46.99 43.15 39.89 37.13 34.72 32.69 30.83 29.26 27.91 26.72 25.64 24.71 23.87 23.13 22.45 21.80 21.17 20.59 20.04 19.52 19.02 18.55 18.09 17.66 17.23 16.82 16.42 16.04 15.66 15.29 14.93 14.58 14.24 13.90 13.57 13.25 12.93 12.62 12.31 12.02 11.72 11.44 11.15 10.88 10.60 10.34 10.07 9.82 9.56 9.31
10.66 10.94 11.22 11.50 11.79 12.08 12.38 12.69 13.00 13.32 13.65 13.98 14.32 14.67 15.02 15.38 15.74 16.11 16.48 16.86 17.25 17.65 18.06 18.49 18.93 19.39 19.86 20.36 20.88 21.43 22.01 22.62 23.25 23.93 24.69 25.54 26.51 27.61 28.85 30.31 32.03 34.00 36.29 39.02 42.15 46.05 50.14 51.00 47.00 43.17 39.91 37.16 34.77 32.75 30.93 29.38 28.06 26.89 25.85 24.93 24.11 23.38 22.71 22.07 21.45 20.86 20.31 19.79 19.29 18.81 18.35 17.90 17.47 17.06 16.65 16.25 15.87 15.49 15.13 14.77 14.42 14.08 13.74 13.41 13.09 12.77 12.46 12.16 11.86 11.57 11.29 11.00 10.73 10.46 10.19 9.93 9.67 9.42
10.77 11.05 11.33 11.62 11.91 12.21 12.51 12.83 13.14 13.47 13.80 14.14 14.48 14.84 15.20 15.57 15.95 16.33 16.72 17.11 17.50 17.91 18.34 18.77 19.22 19.68 20.16 20.67 21.19 21.74 22.33 22.94 23.56 24.23 24.97 25.80 26.73 27.80 29.01 30.43 32.11 34.06 36.32 39.03 42.15 46.04 50.14 51.01 47.01 43.18 39.93 37.20 34.83 32.84 31.04 29.52 28.23 27.09 26.07 25.18 24.38 23.66 22.99 22.36 21.73 21.15 20.59 20.07 19.56 19.08 18.61 18.16 17.72 17.29 16.88 16.48 16.08 15.70 15.33 14.96 14.60 14.25 13.91 13.58 13.25 12.93 12.61 12.31 12.00 11.71 11.42 11.13 10.85 10.57 10.30 10.04 9.78 9.52
10.87 11.15 11.44 11.73 12.03 12.33 12.64 12.96 13.28 13.61 13.95 14.29 14.65 15.01 15.37 15.75 16.14 16.53 16.94 17.35 17.76 18.18 18.61 19.06 19.51 19.99 20.48 20.99 21.52 22.08 22.66 23.28 23.89 24.56 25.28 26.09 27.00 28.03 29.20 30.58 32.22 34.13 36.37 39.05 42.15 46.04 50.13 51.02 47.03 43.20 39.96 37.25 34.90 32.94 31.18 29.70 28.44 27.33 26.34 25.46 24.67 23.96 23.30 22.66 22.04 21.45 20.89 20.36 19.84 19.35 18.88 18.41 17.97 17.53 17.11 16.70 16.30 15.91 15.52 15.15 14.79 14.43 14.08 13.74 13.41 13.08 12.76 12.45 12.14 11.84 11.54 11.25 10.97 10.69 10.42 10.15 9.88 9.62
10.97 11.26 11.55 11.84 12.14 12.45 12.77 13.09 13.42 13.75 14.10 14.45 14.81 15.17 15.55 15.93 16.33 16.73 17.15 17.57 18.01 18.45 18.89 19.35 19.82 20.30 20.80 21.32 21.86 22.42 23.02 23.63 24.26 24.92 25.64 26.42 27.31 28.31 29.43 30.77 32.36 34.22 36.42 39.08 42.16 46.04 50.13 51.03 47.04 43.22 39.99 37.31 34.99 33.07 31.34 29.90 28.68 27.60 26.63 25.77 25.00 24.29 23.63 22.99 22.36 21.77 21.20 20.66 20.14 19.63 19.15 18.68 18.22 17.78 17.34 16.92 16.51 16.11 15.72 15.34 14.97 14.61 14.25 13.90 13.56 13.23 12.91 12.59 12.28 11.97 11.67 11.38 11.09 10.80 10.53 10.25 9.99 9.72
11.07 11.36 11.65 11.95 12.26 12.57 12.89 13.22 13.55 13.89 14.24 14.60 14.96 15.34 15.72 16.11 16.52 16.93 17.35 17.79 18.23 18.69 19.16 19.64 20.12 20.62 21.13 21.66 22.21 22.79 23.39 24.01 24.65 25.31 26.03 26.80 27.67 28.63 29.72 30.99 32.53 34.34 36.49 39.11 42.17 46.04 50.13 51.04 47.06 43.25 40.04 37.38 35.10 33.22 31.54 30.15 28.96 27.91 26.97 26.12 25.35 24.64 23.98 23.33 22.70 22.10 21.52 20.97 20.43 19.92 19.42 18.94 18.47 18.02 17.58 17.15 16.73 16.32 15.92 15.53 15.15 14.78 14.42 14.07 13.72 13.38 13.05 12.73 12.41 12.10 11.79 11.49 11.20 10.91 10.63 10.36 10.09 9.82
11.16 11.45 11.75 12.06 12.37 12.68 13.01 13.34 13.68 14.02 14.38 14.74 15.12 15.50 15.89 16.29 16.70 17.12 17.55 18.00 18.46 18.93 19.41 19.91 20.42 20.94 21.47 22.01 22.58 23.16 23.78 24.41 25.06 25.73 26.45 27.23 28.07 29.01 30.04 31.26 32.73 34.48 36.58 39.15 42.19 46.04 50.12 51.05 47.08 43.29 40.10 37.47 35.23 33.40 31.77 30.43 29.29 28.27 27.34 26.51 25.74 25.02 24.35 23.70 23.05 22.44 21.85 21.28 20.74 20.21 19.70 19.21 18.73 18.26 17.81 17.37 16.94 16.52 16.11 15.72 15.33 14.95 14.58 14.22 13.87 13.53 13.19 12.86 12.54 12.22 11.91 11.61 11.31 11.02 10.74 10.46 10.18 9.91
11.25 11.55 11.85 12.16 12.47 12.79 13.12 13.46 13.80 14.15 14.52 14.88 15.26 15.65 16.05 16.46 16.88 17.31 17.75 18.21 18.68 19.16 19.66 20.17 20.70 21.24 21.81 22.37 22.95 23.55 24.18 24.83 25.49 26.18 26.92 27.69 28.53 29.43 30.42 31.58 32.99 34.67 36.70 39.22 42.21 46.04 50.12 51.07 47.11 43.34 40.17 37.59 35.40 33.62 32.05 30.75 29.65 28.67 27.76 26.93 26.16 25.43 24.75 24.08 23.42 22.79 22.19 21.61 21.05 20.50 19.98 19.47 18.98 18.50 18.04 17.59 17.15 16.72 16.31 15.90 15.51 15.12 14.74 14.38 14.02 13.67 13.33 12.99 12.67 12.34 12.03 11.72 11.42 11.13 10.84 10.55 10.28 10.00
11.34 11.64 11.94 12.25 12.57 12.90 13.23 13.57 13.92 14.28 14.65 15.02 15.41 15.80 16.21 16.63 17.05 17.49 17.95 18.41 18.89 19.39 19.90 20.42 20.97 21.53 22.11 22.71 23.33 23.95 24.60 25.27 25.95 26.66 27.41 28.20 29.01 29.89 30.86 31.97 33.32 34.92 36.88 39.32 42.26 46.05 50.13 51.11 47.16 43.40 40.28 37.74 35.62 33.89 32.38 31.13 30.05 29.09 28.21 27.39 26.60 25.86 25.16 24.47 23.80 23.15 22.53 21.93 21.36 20.80 20.26 19.74 19.23 18.74 18.27 17.80 17.36 16.92 16.49 16.08 15.68 15.28 14.90 14.53 14.16 13.81 13.46 13.12 12.79 12.46 12.14 11.83 11.53 11.23 10.94 10.65 10.37 10.09
11.42 11.72 12.03 12.34 12.67 13.00 13.34 13.68 14.04 14.40 14.77 15.15 15.55 15.95 16.36 16.79 17.22 17.67 18.13 18.61 19.10 19.61 20.13 20.67 21.23 21.81 22.41 23.03 23.67 24.34 25.02 25.72 26.43 27.16 27.94 28.71 29.53 30.41 31.36 32.45 33.73 35.25 37.11 39.46 42.32 46.06 50.14 51.17 47.22 43.49 40.41 37.94 35.89 34.23 32.78 31.57 30.51 29.56 28.68 27.87 27.08 26.31 25.59 24.88 24.18 23.52 22.87 22.26 21.66 21.09 20.54 20.00 19.48 18.98 18.49 18.02 17.56 17.11 16.68 16.26 15.84 15.44 15.05 14.68 14.30 13.94 13.59 13.24 12.90 12.57 12.25 11.94 11.63 11.32 11.03 10.74 10.45 10.17
11.49 11.80 12.11 12.43 12.76 13.09 13.43 13.79 14.14 14.51 14.89 15.28 15.68 16.09 16.51 16.94 17.38 17.84 18.32 18.80 19.31 19.83 20.36 20.92 21.49 22.09 22.70 23.35 24.01 24.70 25.42 26.17 26.91 27.68 28.46 29.25 30.09 30.99 31.94 33.01 34.24 35.67 37.43 39.65 42.41 46.08 50.16 51.27 47.29 43.58 40.58 38.19 36.23 34.65 33.26 32.08 31.04 30.08 29.19 28.36 27.57 26.78 26.03 25.29 24.57 23.88 23.22 22.58 21.97 21.38 20.81 20.26 19.72 19.21 18.71 18.22 17.75 17.30 16.86 16.43 16.01 15.60 15.20 14.81 14.44 14.07 13.71 13.36 13.02 12.68 12.36 12.04 11.72 11.42 11.12 10.82 10.54 10.26
11.57 11.88 12.19 12.51 12.84 13.18 13.53 13.88 14.25 14.62 15.00 15.40 15.80 16.22 16.65 17.09 17.54 18.01 18.49 18.99 19.50 20.03 20.58 21.15 21.74 22.36 22.99 23.65 24.34 25.06 25.81 26.59 27.38 28.20 28.99 29.82 30.69 31.61 32.59 33.66 34.86 36.22 37.82 39.91 42.52 46.07 50.11 51.31 47.31 43.66 40.77 38.50 36.66 35.18 33.83 32.66 31.62 30.65 29.73 28.87 28.06 27.26 26.47 25.71 24.96 24.25 23.56 22.90 22.27 21.66 21.07 20.51 19.96 19.43 18.92 18.42 17.94 17.48 17.02 16.59 16.16 15.74 15.34 14.95 14.56 14.19 13.83 13.47 13.12 12.78 12.45 12.13 11.81 11.51 11.20 10.91 10.62 10.33
11.64 11.95 12.27 12.59 12.93 13.27 13.62 13.98 14.35 14.72 15.11 15.51 15.92 16.34 16.78 17.22 17.69 18.16 18.65 19.16 19.68 20.23 20.79 21.38 21.98 22.61 23.27 23.95 24.66 25.41 26.19 27.00 27.83 28.66 29.51 30.40 31.32 32.29 33.31 34.41 35.59 36.88 38.38 40.29 42.69 45.98 49.66 50.60 47.14 43.71 41.03 38.93 37.21 35.79 34.51 33.34 32.27 31.26 30.30 29.40 28.55 27.74 26.92 26.12 25.35 24.60 23.89 23.21 22.56 21.93 21.33 20.75 20.19 19.64 19.12 18.61 18.12 17.65 17.18 16.74 16.30 15.88 15.47 15.07 14.68 14.30 13.94 13.58 13.23 12.88 12.55 12.22 11.90 11.59 11.28 10.99 10.69 10.41
11.70 12.02 12.34 12.67 13.00 13.35 13.70 14.06 14.44 14.82 15.21 15.62 16.03 16.46 16.90 17.35 17.82 18.31 18.81 19.32 19.86 20.41 20.99 21.59 22.21 22.86 23.53 24.23 24.97 25.74 26.55 27.39 28.26 29.11 30.01 30.96 31.96 33.01 34.09 35.23 36.41 37.70 39.16 40.91 43.08 46.07 49.37 49.98 47.11 43.96 41.50 39.56 37.93 36.54 35.26 34.10 32.97 31.90 30.89 29.94 29.05 28.20 27.36 26.53 25.72 24.95 24.22 23.51 22.84 22.19 21.57 20.97 20.40 19.84 19.31 18.79 18.29 17.80 17.34 16.88 16.44 16.01 15.60 15.19 14.80 14.41 14.04 13.68 13.32 12.98 12.64 12.31 11.99 11.67 11.36 11.06 10.77 10.48
11.76 12.08 12.40 12.73 13.07 13.42 13.78 14.15 14.52 14.91 15.31 15.71 16.13 16.57 17.01 17.48 17.95 18.44 18.95 19.48 20.02 20.59 21.18 21.79 22.42 23.09 23.78 24.50 25.26 26.06 26.89 27.77 28.65 29.54 30.49 31.49 32.56 33.70 34.90 36.08 37.35 38.71 40.20 41.89 43.87 46.70 49.91 50.53 47.70 44.63 42.33 40.50 38.87 37.45 36.11 34.88 33.70 32.56 31.49 30.48 29.53 28.64 27.79 26.92 26.08 25.28 24.52 23.79 23.10 22.43 21.80 21.18 20.60 20.03 19.48 18.96 18.45 17.95 17.48 17.02 16.57 16.13 15.71 15.30 14.91 14.52 14.14 13.77 13.41 13.06 12.72 12.39 12.06 11.75 11.44 11.13 10.83 10.54
11.81 12.13 12.46 12.79 13.14 13.49 13.85 14.22 14.60 14.99 15.39 15.80 16.23 16.67 17.12 17.58 18.07 18.56 19.08 19.61 20.17 20.74 21.34 21.96 22.61 23.29 24.00 24.74 25.52 26.34 27.21 28.12 29.01 29.94 30.93 31.99 33.12 34.34 35.60 36.92 38.35 39.84 41.43 43.11 45.04 47.74 51.10 51.77 48.73 45.68 43.43 41.63 40.00 38.45 36.99 35.66 34.42 33.20 32.05 30.99 29.99 29.05 28.17 27.27 26.40 25.58 24.79 24.05 23.33 22.65 22.00 21.38 20.78 20.20 19.64 19.11 18.59 18.09 17.61 17.14 16.69 16.25 15.82 15.41 15.00 14.61 14.23 13.86 13.50 13.14 12.80 12.46 12.14 11.82 11.50 11.20 10.90 10.60
11.86 12.18 12.51 12.85 13.19 13.54 13.91 14.28 14.66 15.06 15.46 15.88 16.31 16.75 17.21 17.68 18.16 18.67 19.19 19.73 20.29 20.88 21.49 22.12 22.78 23.47 24.20 24.96 25.75 26.60 27.49 28.42 29.33 30.29 31.33 32.44 33.63 34.93 36.25 37.68 39.26 41.00 42.74 44.61 46.66 49.16 52.99 54.17 50.13 47.15 44.89 42.96 41.19 39.48 37.87 36.41 35.08 33.79 32.58 31.45 30.40 29.41 28.50 27.59 26.69 25.84 25.04 24.27 23.54 22.85 22.18 21.55 20.94 20.35 19.79 19.24 18.72 18.21 17.72 17.25 16.79 16.35 15.92 15.50 15.09 14.70 14.31 13.94 13.57 13.22 12.87 12.53 12.20 11.88 11.56 11.26 10.95 10.66
11.90 12.22 12.55 12.89 13.24 13.59 13.96 14.33 14.72 15.12 15.52 15.94 16.38 16.82 17.28 17.76 18.25 18.76 19.29 19.84 20.41 21.00 21.61 22.26 22.93 23.63 24.37 25.14 25.96 26.82 27.73 28.68 29.61 30.61 31.68 32.84 34.09 35.45 36.84 38.38 40.12 42.01 44.03 46.36 48.82 51.92 56.00 57.89 52.94 49.31 46.79 44.46 42.38 40.51 38.71 37.11 35.68 34.32 33.04 31.85 30.76 29.74 28.79 27.86 26.94 26.07 25.25 24.47 23.73 23.02 22.35 21.70 21.08 20.49 19.91 19.36 18.83 18.32 17.83 17.35 16.89 16.44 16.00 15.58 15.17 14.77 14.39 14.01 13.64 13.28 12.93 12.59 12.26 11.94 11.62 11.31 11.01 10.71
11.94 12.26 12.59 12.93 13.28 13.64 14.01 14.38 14.77 15.17 15.58 16.00 16.44 16.89 17.35 17.83 18.33 18.84 19.37 19.93 20.50 21.10 21.72 22.37 23.05 23.77 24.51 25.30 26.13 27.00 27.93 28.90 29.85 30.88 31.98 33.18 34.48 35.88 37.35 38.99 40.86 42.90 45.19 47.93 51.29 56.72 63.18 65.28 58.53 52.72 48.74 45.90 43.46 41.40 39.43 37.71 36.18 34.77 33.43 32.20 31.07 30.02 29.04 28.10 27.16 26.28 25.44 24.65 23.89 23.18 22.49 21.84 21.21 20.61 20.03 19.47 18.94 18.42 17.92 17.44 16.97 16.52 16.08 15.66 15.24 14.84 14.45 14.07 13.70 13.34 12.99 12.65 12.32 11.99 11.67 11.36 11.06 10.76
11.97 12.30 12.63 12.97 13.32 13.68 14.05 14.43 14.82 15.22 15.63 16.06 16.50 16.95 17.41 17.90 18.40 18.91 19.45 20.01 20.59 21.19 21.82 22.48 23.16 23.88 24.64 25.43 26.27 27.16 28.10 29.08 30.05 31.09 32.22 33.44 34.78 36.22 37.74 39.45 41.41 43.56 46.04 49.07 53.15 60.20 73.33 83.42 63.90 55.28 50.19 46.96 44.28 42.07 39.98 38.18 36.59 35.14 33.75 32.49 31.33 30.26 29.27 28.31 27.36 26.46 25.61 24.80 24.04 23.32 22.62 21.96 21.33 20.72 20.14 19.58 19.04 18.52 18.01 17.53 17.06 16.60 16.16 15.73 15.32 14.91 14.52 14.14 13.77 13.41 13.05 12.71 12.37 12.05 11.73 11.41 11.11 10.81
12.03 12.35 12.69 13.03 13.38 13.74 14.11 14.49 14.89 15.29 15.70 16.13 16.57 17.03 17.50 17.98 18.48 19.00 19.54 20.10 20.69 21.29 21.93 22.59 23.28 24.00 24.76 25.56 26.41 27.30 28.25 29.24 30.22 31.28 32.41 33.65 35.00 36.45 37.99 39.71 41.68 43.87 46.36 49.40 53.19 59.35 66.59 69.49 62.97 55.60 50.86 47.55 44.81 42.53 40.41 38.58 36.96 35.48 34.07 32.79 31.61 30.52 29.51 28.54 27.57 26.66 25.80 24.98 24.21 23.47 22.77 22.11 21.47 20.85 20.26 19.70 19.15 18.63 18.12 17.63 17.16 16.70 16.25 15.82 15.40 15.00 14.60 14.22 13.85 13.48 13.13 12.78 12.44 12.11 11.79 11.48 11.17 10.87
12.08 12.40 12.74 13.08 13.44 13.80 14.17 14.55 14.95 15.35 15.77 16.19 16.64 17.09 17.56 18.05 18.56 19.08 19.62 20.18 20.77 21.38 22.01 22.67 23.37 24.09 24.86 25.66 26.51 27.40 28.35 29.35 30.33 31.38 32.52 33.75 35.09 36.56 38.07 39.76 41.69 43.85 46.21 49.00 52.08 55.64 59.28 62.04 58.01 54.41 50.72 47.61 44.99 42.72 40.64 38.82 37.20 35.70 34.29 33.00 31.82 30.72 29.70 28.71 27.74 26.82 25.95 25.13 24.35 23.61 22.90 22.23 21.58 20.97 20.37 19.80 19.25 18.73 18.22 17.72 17.25 16.78 16.34 15.90 15.48 15.07 14.68 14.29 13.92 13.55 13.19 12.85 12.51 12.17 11.85 11.54 11.23 10.92
12.12 12.45 12.78 13.13 13.48 13.85 14.22 14.60 15.00 15.40 15.82 16.25 16.69 17.15 17.62 18.11 18.61 19.14 19.68 20.24 20.83 21.44 22.07 22.74 23.43 24.15 24.92 25.72 26.56 27.46 28.40 29.40 30.38 31.42 32.55 33.76 35.08 36.52 38.01 39.64 41.47 43.52 45.63 47.93 50.31 52.57 55.40 58.47 54.79 52.25 49.98 47.24 44.87 42.66 40.67 38.90 37.32 35.82 34.42 33.14 31.96 30.86 29.84 28.84 27.86 26.94 26.07 25.24 24.46 23.72 23.01 22.33 21.69 21.06 20.47 19.90 19.34 18.81 18.30 17.80 17.33 16.86 16.41 15.98 15.56 15.14 14.75 14.36 13.98 13.61 13.26 12.91 12.57 12.23 11.91 11.59 11.28 10.98
12.16 12.49 12.83 13.17 13.53 13.89 14.26 14.65 15.04 15.45 15.86 16.29 16.74 17.20 17.67 18.16 18.66 19.18 19.73 20.29 20.87 21.48 22.12 22.78 23.47 24.19 24.95 25.74 26.58 27.47 28.40 29.39 30.38 31.41 32.51 33.70 34.98 36.37 37.83 39.37 41.05 42.83 44.76 46.60 48.35 50.46 53.51 56.65 53.09 50.33 48.41 46.68 44.45 42.41 40.55 38.86 37.32 35.83 34.46 33.20 32.04 30.95 29.94 28.93 27.95 27.03 26.16 25.33 24.55 23.81 23.10 22.42 21.77 21.15 20.55 19.97 19.42 18.89 18.37 17.88 17.40 16.93 16.48 16.04 15.62 15.21 14.81 14.42 14.04 13.67 13.31 12.96 12.62 12.29 11.96 11.64 11.33 11.03
12.20 12.52 12.86 13.21 13.56 13.93 14.30 14.68 15.08 15.48 15.90 16.33 16.77 17.23 17.70 18.19 18.69 19.22 19.76 20.32 20.90 21.51 22.14 22.79 23.48 24.20 24.95 25.74 26.56 27.44 28.36 29.34 30.33 31.34 32.41 33.56 34.79 36.12 37.54 38.93 40.43 42.04 43.65 45.20 46.81 49.00 52.30 55.45 52.10 49.07 47.03 45.46 43.92 42.03 40.29 38.71 37.19 35.76 34.43 33.20 32.05 30.99 29.98 28.96 27.99 27.08 26.21 25.39 24.61 23.87 23.16 22.48 21.83 21.21 20.61 20.04 19.48 18.95 18.44 17.94 17.46 16.99 16.54 16.10 15.68 15.26 14.86 14.47 14.09 13.72 13.36 13.01 12.67 12.34 12.01 11.69 11.38 11.07
12.23 12.55 12.89 13.24 13.59 13.96 14.33 14.71 15.11 15.51 15.93 16.36 16.80 17.26 17.73 18.21 18.71 19.23 19.77 20.33 20.91 21.51 22.13 22.79 23.47 24.18 24.92 25.70 26.52 27.38 28.28 29.24 30.23 31.21 32.25 33.36 34.53 35.75 37.04 38.39 39.77 41.15 42.46 43.92 45.62 48.04 51.47 54.46 51.47 48.25 45.97 44.30 42.91 41.60 39.96 38.42 36.96 35.61 34.33 33.13 32.01 30.97 29.95 28.95 27.99 27.09 26.23 25.42 24.64 23.90 23.20 22.52 21.88 21.26 20.66 20.09 19.53 19.00 18.48 17.99 17.51 17.04 16.59 16.15 15.73 15.31 14.91 14.52 14.14 13.77 13.41 13.06 12.72 12.38 12.05 11.73 11.42 11.12
12.25 12.58 12.92 13.26 13.62 13.98 14.35 14.73 15.13 15.53 15.95 16.37 16.81 17.27 17.74 18.22 18.72 19.24 19.77 20.32 20.90 21.49 22.12 22.76 23.43 24.14 24.87 25.63 26.44 27.28 28.16 29.09 30.06 31.04 32.04 33.08 34.16 35.30 36.50 37.78 39.03 40.18 41.43 42.89 44.69 47.29 50.73 53.68 50.96 47.65 45.20 43.39 41.94 40.75 39.56 38.06 36.67 35.37 34.15 33.01 31.93 30.91 29.88 28.89 27.95 27.06 26.22 25.41 24.65 23.91 23.21 22.54 21.90 21.28 20.69 20.12 19.57 19.04 18.52 18.03 17.55 17.08 16.63 16.19 15.77 15.35 14.95 14.56 14.18 13.81 13.45 13.10 12.76 12.42 12.09 11.77 11.46 11.16
12.27 12.60 12.93 13.28 13.63 13.99 14.36 14.75 15.14 15.54 15.95 16.38 16.82 17.27 17.73 18.21 18.71 19.22 19.75 20.30 20.87 21.46 22.08 22.71 23.38 24.07 24.79 25.54 26.32 27.15 28.01 28.91 29.84 30.81 31.74 32.71 33.74 34.81 35.94 37.07 38.14 39.29 40.53 42.03 43.93 46.67 50.08 52.96 50.49 47.13 44.55 42.62 41.09 39.85 38.72 37.65 36.33 35.09 33.91 32.81 31.78 30.76 29.75 28.79 27.87 27.00 26.17 25.38 24.62 23.90 23.20 22.54 21.90 21.29 20.70 20.13 19.59 19.06 18.54 18.05 17.57 17.11 16.66 16.22 15.80 15.38 14.98 14.59 14.21 13.84 13.48 13.13 12.79 12.45 12.13 11.81 11.49 11.19
12.28 12.61 12.94 13.28 13.64 14.00 14.37 14.75 15.14 15.54 15.95 16.37 16.81 17.26 17.72 18.20 18.69 19.20 19.72 20.27 20.83 21.41 22.02 22.64 23.30 23.97 24.68 25.41 26.18 26.98 27.81 28.68 29.55 30.47 31.39 32.31 33.28 34.30 35.30 36.25 37.28 38.41 39.69 41.26 43.25 46.11 49.52 52.47 50.04 46.60 43.92 41.89 40.26 38.97 37.84 36.87 35.93 34.75 33.62 32.57 31.56 30.54 29.58 28.65 27.76 26.90 26.09 25.31 24.57 23.85 23.17 22.51 21.88 21.28 20.69 20.13 19.59 19.06 18.55 18.06 17.58 17.12 16.67 16.24 15.82 15.41 15.01 14.62 14.24 13.87 13.51 13.16 12.82 12.48 12.15 11.83 11.52 11.22
12.28 12.61 12.94 13.28 13.64 13.99 14.36 14.74 15.13 15.53 15.93 16.36 16.79 17.23 17.69 18.17 18.65 19.16 19.68 20.21 20.77 21.34 21.94 22.55 23.19 23.86 24.55 25.26 26.01 26.78 27.57 28.38 29.22 30.09 31.00 31.90 32.82 33.73 34.58 35.49 36.50 37.62 38.93 40.59 42.71 45.68 49.26 52.10 49.65 46.12 43.33 41.20 39.49 38.17 37.03 36.07 35.22 34.38 33.31 32.29 31.27 30.29 29.36 28.47 27.61 26.78 25.98 25.22 24.49 23.79 23.12 22.47 21.85 21.25 20.67 20.11 19.57 19.05 18.55 18.06 17.59 17.13 16.68 16.25 15.83 15.42 15.02 14.63 14.26 13.89 13.53 13.18 12.84 12.50 12.17 11.86 11.54 11.24
12.28 12.61 12.94 13.28 13.63 13.98 14.35 14.73 15.11 15.51 15.92 16.33 16.76 17.20 17.66 18.13 18.61 19.11 19.62 20.15 20.69 21.26 21.84 22.45 23.07 23.72 24.40 25.09 25.81 26.53 27.28 28.06 28.86 29.70 30.56 31.47 32.31 33.09 33.91 34.80 35.81 36.95 38.32 40.08 42.32 45.43 48.94 51.65 49.22 45.63 42.77 40.57 38.80 37.44 36.28 35.32 34.49 33.74 32.97 31.95 30.96 30.02 29.12 28.25 27.42 26.62 25.85 25.11 24.39 23.70 23.04 22.41 21.80 21.20 20.63 20.08 19.55 19.03 18.53 18.05 17.58 17.12 16.68 16.25 15.83 15.42 15.03 14.64 14.27 13.90 13.54 13.19 12.85 12.52 12.19 11.87 11.56 11.26
12.27 12.60 12.93 13.27 13.62 13.97 14.33 14.71 15.09 15.48 15.89 16.30 16.73 17.16 17.61 18.08 18.55 19.04 19.55 20.07 20.61 21.16 21.74 22.33 22.94 23.57 24.23 24.88 25.55 26.25 26.98 27.73 28.50 29.29 30.12 30.94 31.71 32.48 33.29 34.18 35.20 36.40 37.86 39.77 42.18 45.48 49.17 51.39 48.81 45.17 42.26 40.00 38.19 36.79 35.59 34.63 33.80 33.06 32.33 31.58 30.63 29.72 28.86 28.02 27.21 26.43 25.68 24.97 24.28 23.60 22.96 22.33 21.73 21.15 20.58 20.04 19.51 19.00 18.51 18.03 17.56 17.11 16.67 16.24 15.83 15.42 15.03 14.64 14.27 13.90 13.55 13.20 12.86 12.53 12.20 11.89 11.58 11.27
12.26 12.59 12.92 13.25 13.60 13.95 14.31 14.68 15.06 15.45 15.85 16.26 16.68 17.11 17.56 18.02 18.49 18.97 19.47 19.98 20.51 21.05 21.61 22.19 22.79 23.39 24.00 24.63 25.28 25.96 26.66 27.39 28.13 28.89 29.65 30.36 31.10 31.90 32.72 33.62 34.68 35.95 37.53 39.61 42.21 45.75 49.77 51.95 48.37 44.76 41.81 39.50 37.64 36.20 34.97 33.98 33.16 32.37 31.65 30.97 30.28 29.41 28.58 27.77 26.98 26.23 25.50 24.80 24.13 23.48 22.85 22.24 21.65 21.07 20.52 19.98 19.46 18.96 18.47 18.00 17.54 17.09 16.65 16.23 15.82 15.41 15.02 14.64 14.27 13.90 13.55 13.20 12.86 12.53 12.21 11.89 11.58 11.28
12.25 12.57 12.90 13.23 13.57 13.92 14.28 14.65 15.03 15.41 15.81 16.21 16.63 17.06 17.50 17.95 18.41 18.88 19.37 19.88 20.40 20.93 21.48 22.03 22.59 23.17 23.76 24.38 25.01 25.66 26.34 27.04 27.75 28.45 29.11 29.80 30.53 31.32 32.16 33.12 34.23 35.58 37.27 39.48 42.21 45.89 50.01 51.82 47.95 44.34 41.38 39.05 37.14 35.66 34.40 33.37 32.50 31.72 31.00 30.34 29.72 29.09 28.29 27.51 26.74 26.01 25.30 24.62 23.97 23.33 22.72 22.13 21.55 20.99 20.44 19.92 19.40 18.91 18.42 17.96 17.50 17.06 16.62 16.20 15.80 15.40 15.01 14.63 14.26 13.90 13.55 13.20 12.86 12.53 12.21 11.90 11.59 11.29
12.23 12.55 12.87 13.20 13.54 13.89 14.25 14.61 14.98 15.37 15.76 16.16 16.57 16.99 17.42 17.87 18.32 18.79 19.27 19.77 20.28 20.79 21.30 21.83 22.38 22.94 23.52 24.11 24.73 25.36 26.02 26.70 27.35 27.96 28.60 29.28 30.00 30.79 31.65 32.63 33.82 35.27 37.06 39.37 42.20 45.96 50.10 51.69 47.75 44.06 41.04 38.66 36.71 35.18 33.85 32.78 31.89 31.11 30.39 29.74 29.14 28.57 27.99 27.23 26.50 25.78 25.10 24.43 23.79 23.17 22.58 22.00 21.44 20.89 20.36 19.84 19.33 18.84 18.37 17.90 17.45 17.02 16.59 16.17 15.77 15.37 14.99 14.61 14.24 13.89 13.54 13.19 12.86 12.53 12.21 11.90 11.59 11.29
12.20 12.52 12.84 13.17 13.51 13.85 14.21 14.57 14.94 15.31 15.70 16.10 16.50 16.92 17.34 17.78 18.23 18.69 19.16 19.65 20.12 20.61 21.11 21.63 22.16 22.70 23.27 23.84 24.44 25.06 25.69 26.32 26.89 27.49 28.12 28.78 29.50 30.30 31.18 32.20 33.46 34.99 36.87 39.28 42.18 46.00 50.13 51.65 47.70 43.93 40.82 38.36 36.33 34.74 33.36 32.25 31.34 30.54 29.82 29.18 28.59 28.03 27.50 26.95 26.24 25.55 24.88 24.23 23.61 23.00 22.42 21.85 21.30 20.77 20.26 19.75 19.25 18.77 18.30 17.85 17.40 16.97 16.55 16.13 15.73 15.34 14.96 14.59 14.22 13.87 13.52 13.18 12.85 12.52 12.20 11.89 11.59 11.29
12.17 12.49 12.81 13.13 13.47 13.81 14.16 14.52 14.88 15.25 15.64 16.03 16.43 16.84 17.26 17.69 18.13 18.58 19.03 19.48 19.94 20.42 20.91 21.41 21.93 22.46 23.01 23.57 24.15 24.75 25.34 25.90 26.45 27.04 27.66 28.32 29.05 29.86 30.76 31.84 33.16 34.76 36.72 39.21 42.17 46.01 50.13 51.64 47.69 43.87 40.69 38.15 36.04 34.38 32.94 31.79 30.84 30.03 29.30 28.65 28.06 27.51 27.00 26.50 25.97 25.30 24.65 24.02 23.42 22.83 22.26 21.70 21.16 20.64 20.13 19.64 19.16 18.69 18.23 17.78 17.34 16.91 16.50 16.09 15.69 15.31 14.93 14.56 14.20 13.84 13.50 13.16 12.83 12.51 12.19 11.88 11.58 11.28
12.14 12.45 12.77 13.09 13.42 13.76 14.11 14.46 14.82 15.19 15.57 15.95 16.35 16.75 17.16 17.59 18.01 18.43 18.86 19.31 19.76 20.23 20.71 21.20 21.70 22.22 22.75 23.30 23.87 24.42 24.95 25.49 26.03 26.61 27.23 27.89 28.63 29.46 30.40 31.52 32.91 34.58 36.61 39.16 42.16 46.02 50.13 51.64 47.69 43.85 40.61 38.01 35.83 34.10 32.59 31.39 30.40 29.56 28.81 28.16 27.57 27.02 26.52 26.03 25.54 25.05 24.42 23.81 23.22 22.64 22.08 21.54 21.01 20.50 20.01 19.52 19.05 18.59 18.15 17.70 17.27 16.85 16.44 16.04 15.64 15.26 14.89 14.52 14.16 13.81 13.47 13.14 12.81 12.49 12.17 11.87 11.56 11.27
12.10 12.41 12.72 13.05 13.37 13.71 14.05 14.40 14.75 15.12 15.49 15.87 16.26 16.66 17.06 17.45 17.86 18.27 18.69 19.13 19.57 20.03 20.50 20.98 21.47 21.97 22.49 23.03 23.55 24.05 24.56 25.09 25.63 26.21 26.82 27.50 28.25 29.11 30.08 31.26 32.70 34.43 36.53 39.12 42.15 46.02 50.13 51.64 47.69 43.84 40.57 37.91 35.67 33.87 32.30 31.04 30.01 29.14 28.37 27.70 27.10 26.56 26.06 25.57 25.10 24.65 24.19 23.59 23.01 22.45 21.90 21.37 20.86 20.36 19.87 19.40 18.93 18.48 18.04 17.61 17.20 16.78 16.37 15.98 15.59 15.21 14.84 14.48 14.13 13.78 13.44 13.11 12.78 12.46 12.15 11.85 11.55 11.25
12.06 12.36 12.68 12.99 13.32 13.65 13.99 14.33 14.68 15.04 15.41 15.78 16.17 16.54 16.92 17.30 17.70 18.11 18.52 18.95 19.38 19.83 20.29 20.75 21.23 21.73 22.23 22.73 23.20 23.68 24.19 24.72 25.25 25.83 26.45 27.14 27.91 28.79 29.81 31.03 32.53 34.32 36.46 39.09 42.14 46.01 50.12 51.64 47.70 43.83 40.54 37.85 35.55 33.69 32.07 30.75 29.68 28.77 27.97 27.28 26.67 26.13 25.62 25.14 24.67 24.22 23.80 23.37 22.80 22.25 21.72 21.20 20.70 20.21 19.73 19.26 18.81 18.37 17.93 17.51 17.10 16.70 16.30 15.91 15.53 15.16 14.79 14.43 14.08 13.74 13.40 13.07 12.75 12.44 12.13 11.82 11.53 11.23
12.01 12.31 12.62 12.94 13.26 13.58 13.92 14.26 14.61 14.96 15.32 15.68 16.03 16.40 16.77 17.15 17.54 17.94 18.35 18.76 19.19 19.62 20.07 20.53 21.00 21.48 21.96 22.40 22.86 23.33 23.83 24.36 24.90 25.47 26.11 26.80 27.60 28.52 29.57 30.84 32.39 34.22 36.40 39.06 42.12 46.00 50.11 51.65 47.70 43.83 40.52 37.80 35.46 33.55 31.87 30.50 29.38 28.43 27.61 26.90 26.28 25.72 25.21 24.73 24.26 23.82 23.40 23.00 22.59 22.05 21.53 21.03 20.53 20.05 19.58 19.12 18.68 18.24 17.82 17.40 17.00 16.60 16.22 15.84 15.46 15.09 14.73 14.38 14.03 13.69 13.36 13.03 12.72 12.40 12.10 11.80 11.50 11.21
11.96 12.26 12.57 12.88 13.19 13.52 13.85 14.18 14.52 14.87 15.20 15.55 15.90 16.26 16.62 17.00 17.38 17.77 18.17 18.58 18.99 19.42 19.86 20.30 20.76 21.22 21.64 22.07 22.52 23.00 23.50 24.02 24.56 25.14 25.79 26.50 27.32 28.27 29.36 30.67 32.27 34.14 36.36 39.04 42.11 46.00 50.11 51.65 47.71 43.83 40.51 37.76 35.39 33.44 31.71 30.30 29.13 28.14 27.28 26.55 25.91 25.34 24.83 24.34 23.87 23.43 23.02 22.62 22.24 21.85 21.34 20.85 20.36 19.89 19.43 18.98 18.54 18.12 17.70 17.29 16.89 16.50 16.12 15.75 15.38 15.03 14.67 14.32 13.98 13.64 13.31 12.99 12.68 12.37 12.06 11.76 11.47 11.18
11.91 12.20 12.51 12.81 13.13 13.45 13.77 14.10 14.42 14.74 15.08 15.41 15.76 16.11 16.47 16.84 17.21 17.60 17.99 18.39 18.80 19.21 19.64 20.08 20.51 20.91 21.33 21.76 22.20 22.67 23.17 23.70 24.25 24.84 25.49 26.22 27.07 28.06 29.19 30.54 32.17 34.08 36.32 39.02 42.10 45.99 50.10 51.65 47.71 43.83 40.50 37.74 35.33 33.35 31.58 30.12 28.91 27.89 26.99 26.23 25.57 24.99 24.47 23.98 23.50 23.06 22.65 22.26 21.88 21.52 21.15 20.66 20.19 19.73 19.28 18.84 18.41 17.99 17.58 17.17 16.78 16.40 16.02 15.65 15.29 14.94 14.60 14.26 13.92 13.59 13.26 12.94 12.63 12.32 12.02 11.73 11.44 11.15
11.85 12.14 12.44 12.75 13.05 13.37 13.68 13.98 14.30 14.62 14.95 15.28 15.62 15.96 16.32 16.68 17.05 17.42 17.81 18.20 18.60 19.01 19.43 19.84 20.22 20.62 21.03 21.45 21.90 22.37 22.87 23.40 23.95 24.56 25.22 25.98 26.85 27.87 29.03 30.42 32.08 34.02 36.28 39.00 42.09 45.98 50.09 51.66 47.72 43.84 40.50 37.72 35.29 33.28 31.47 29.97 28.72 27.66 26.74 25.95 25.27 24.67 24.13 23.63 23.15 22.71 22.30 21.91 21.53 21.18 20.83 20.48 20.01 19.56 19.12 18.69 18.26 17.85 17.45 17.05 16.67 16.29 15.92 15.56 15.20 14.85 14.51 14.18 13.85 13.53 13.21 12.89 12.58 12.28 11.98 11.69 11.40 11.12
11.79 12.08 12.37 12.67 12.97 13.26 13.56 13.87 14.18 14.49 14.81 15.14 15.47 15.82 16.16 16.52 16.88 17.25 17.62 18.01 18.40 18.80 19.20 19.57 19.94 20.33 20.74 21.16 21.60 22.08 22.58 23.12 23.68 24.29 24.97 25.75 26.66 27.71 28.90 30.32 32.01 33.98 36.25 38.98 42.07 45.97 50.08 51.66 47.72 43.84 40.49 37.70 35.26 33.22 31.38 29.84 28.56 27.47 26.51 25.69 24.99 24.37 23.82 23.31 22.82 22.38 21.96 21.57 21.20 20.85 20.50 20.17 19.84 19.39 18.96 18.53 18.12 17.71 17.32 16.93 16.55 16.18 15.81 15.46 15.11 14.76 14.43 14.10 13.77 13.46 13.15 12.84 12.53 12.23 11.93 11.64 11.36 11.08
11.73 12.01 12.30 12.58 12.86 13.15 13.45 13.75 14.05 14.36 14.68 15.00 15.33 15.66 16.01 16.35 16.71 17.07 17.44 17.82 18.21 18.59 18.94 19.30 19.67 20.05 20.46 20.88 21.32 21.80 22.31 22.86 23.42 24.05 24.75 25.55 26.48 27.56 28.78 30.23 31.95 33.94 36.23 38.97 42.06 45.96 50.08 51.67 47.73 43.84 40.49 37.69 35.23 33.17 31.30 29.74 28.42 27.29 26.30 25.46 24.73 24.10 23.53 23.01 22.52 22.06 21.64 21.25 20.88 20.53 20.19 19.86 19.55 19.22 18.80 18.38 17.97 17.57 17.18 16.80 16.43 16.06 15.70 15.35 15.01 14.67 14.34 14.01 13.69 13.38 13.07 12.77 12.47 12.18 11.88 11.60 11.31 11.04
11.66 11.93 12.20 12.47 12.75 13.04 13.33 13.62 13.92 14.23 14.54 14.86 15.18 15.51 15.85 16.19 16.54 16.90 17.26 17.63 18.00 18.33 18.68 19.04 19.40 19.79 20.19 20.61 21.06 21.54 22.06 22.61 23.19 23.82 24.54 25.37 26.33 27.43 28.68 30.16 31.90 33.90 36.21 38.95 42.05 45.95 50.07 51.67 47.74 43.85 40.49 37.68 35.21 33.13 31.24 29.65 28.30 27.15 26.12 25.25 24.50 23.84 23.27 22.73 22.22 21.76 21.34 20.94 20.57 20.22 19.88 19.56 19.25 18.94 18.63 18.22 17.82 17.43 17.05 16.67 16.31 15.94 15.59 15.24 14.90 14.57 14.24 13.92 13.61 13.30 12.99 12.70 12.40 12.12 11.83 11.55 11.27 10.99
11.56 11.83 12.09 12.36 12.64 12.92 13.21 13.50 13.80 14.10 14.41 14.72 15.04 15.36 15.69 16.03 16.37 16.72 17.08 17.43 17.75 18.09 18.43 18.78 19.15 19.53 19.93 20.35 20.80 21.29 21.82 22.38 22.96 23.62 24.36 25.21 26.19 27.32 28.60 30.09 31.85 33.87 36.19 38.94 42.05 45.94 50.06 51.68 47.74 43.85 40.49 37.68 35.19 33.10 31.19 29.57 28.20 27.01 25.96 25.07 24.29 23.62 23.02 22.47 21.95 21.48 21.05 20.65 20.28 19.92 19.59 19.27 18.96 18.66 18.37 18.07 17.67 17.29 16.91 16.54 16.18 15.82 15.48 15.13 14.80 14.47 14.15 13.83 13.52 13.21 12.91 12.62 12.33 12.05 11.77 11.49 11.22 10.95
11.46 11.72 11.99 12.26 12.53 12.81 13.09 13.38 13.67 13.97 14.27 14.58 14.89 15.21 15.53 15.86 16.20 16.55 16.89 17.20 17.52 17.85 18.19 18.54 18.90 19.28 19.68 20.11 20.57 21.06 21.59 22.16 22.76 23.43 24.19 25.06 26.07 27.22 28.52 30.03 31.82 33.85 36.17 38.93 42.04 45.93 50.05 51.68 47.75 43.86 40.49 37.67 35.17 33.07 31.14 29.50 28.11 26.90 25.82 24.90 24.10 23.41 22.79 22.23 21.70 21.22 20.78 20.37 19.99 19.64 19.30 18.98 18.68 18.38 18.09 17.81 17.52 17.14 16.77 16.41 16.05 15.70 15.36 15.02 14.69 14.37 14.05 13.74 13.43 13.13 12.83 12.54 12.25 11.97 11.70 11.42 11.16 10.89
11.36 11.62 11.88 12.15 12.41 12.69 12.97 13.25 13.54 13.83 14.13 14.43 14.74 15.06 15.38 15.70 16.04 16.36 16.66 16.97 17.29 17.61 17.95 18.30 18.66 19.05 19.45 19.88 20.34 20.84 21.38 21.96 22.58 23.26 24.04 24.93 25.96 27.14 28.45 29.98 31.78 33.82 36.16 38.92 42.03 45.92 50.05 51.68 47.76 43.86 40.49 37.67 35.16 33.05 31.10 29.45 28.03 26.80 25.70 24.75 23.93 23.22 22.59 22.01 21.46 20.97 20.52 20.11 19.73 19.37 19.03 18.71 18.40 18.11 17.82 17.55 17.28 17.00 16.63 16.28 15.92 15.58 15.24 14.91 14.58 14.26 13.95 13.64 13.34 13.04 12.75 12.46 12.18 11.90 11.62 11.35 11.09 10.83
11.26 11.51 11.77 12.03 12.30 12.57 12.84 13.12 13.41 13.70 13.99 14.29 14.59 14.90 15.22 15.54 15.86 16.15 16.44 16.75 17.06 17.39 17.72 18.07 18.43 18.82 19.22 19.66 20.13 20.63 21.18 21.78 22.40 23.11 23.90 24.82 25.86 27.06 28.39 29.94 31.75 33.80 36.14 38.91 42.02 45.92 50.04 51.69 47.76 43.87 40.49 37.67 35.15 33.03 31.07 29.40 27.97 26.71 25.59 24.62 23.78 23.04 22.39 21.80 21.24 20.74 20.28 19.86 19.47 19.11 18.77 18.45 18.14 17.85 17.56 17.29 17.02 16.76 16.49 16.14 15.80 15.46 15.12 14.80 14.47 14.16 13.85 13.54 13.24 12.95 12.66 12.38 12.10 11.82 11.55 11.28 11.02 10.76
11.16 11.41 11.66 11.92 12.18 12.45 12.72 13.00 13.28 13.56 13.85 14.15 14.45 14.75 15.06 15.37 15.65 15.94 16.23 16.53 16.84 17.17 17.50 17.85 18.21 18.60 19.01 19.45 19.92 20.43 20.99 21.61 22.25 22.97 23.78 24.71 25.78 26.99 28.34 29.90 31.72 33.79 36.13 38.90 42.01 45.91 50.03 51.69 47.77 43.87 40.49 37.67 35.15 33.02 31.04 29.36 27.91 26.63 25.49 24.50 23.64 22.88 22.22 21.61 21.04 20.52 20.05 19.62 19.23 18.86 18.52 18.20 17.89 17.59 17.31 17.04 16.77 16.51 16.26 16.01 15.66 15.33 15.00 14.68 14.36 14.05 13.74 13.44 13.15 12.86 12.57 12.29 12.01 11.74 11.47 11.21 10.95 10.70
11.05 11.30 11.55 11.81 12.07 12.33 12.60 12.87 13.15 13.43 13.71 14.00 14.30 14.60 14.90 15.17 15.45 15.73 16.02 16.32 16.63 16.95 17.29 17.64 18.00 18.39 18.81 19.25 19.73 20.25 20.82 21.45 22.10 22.84 23.67 24.61 25.70 26.93 28.29 29.87 31.70 33.77 36.12 38.89 42.00 45.90 50.02 51.70 47.78 43.88 40.50 37.67 35.14 33.00 31.02 29.32 27.86 26.57 25.40 24.39 23.51 22.74 22.06 21.44 20.85 20.31 19.84 19.40 19.00 18.63 18.28 17.95 17.64 17.35 17.07 16.79 16.53 16.27 16.03 15.78 15.53 15.20 14.88 14.56 14.25 13.94 13.64 13.34 13.05 12.76 12.48 12.20 11.93 11.66 11.40 11.14 10.88 10.63
10.95 11.19 11.44 11.69 11.95 12.21 12.47 12.74 13.02 13.29 13.58 13.86 14.15 14.44 14.70 14.97 15.25 15.53 15.82 16.12 16.43 16.75 17.08 17.43 17.80 18.20 18.62 19.07 19.55 20.08 20.66 21.30 21.97 22.72 23.57 24.53 25.63 26.88 28.25 29.84 31.68 33.75 36.11 38.89 42.00 45.89 50.02 51.70 47.78 43.88 40.50 37.67 35.14 32.99 31.00 29.29 27.81 26.51 25.33 24.30 23.40 22.61 21.91 21.28 20.67 20.13 19.64 19.19 18.78 18.40 18.05 17.72 17.41 17.11 16.83 16.56 16.30 16.04 15.79 15.55 15.32 15.08 14.76 14.44 14.14 13.83 13.53 13.24 12.95 12.67 12.39 12.12 11.85 11.58 11.32 11.06 10.81 10.56
10.84 11.09 11.33 11.58 11.83 12.09 12.35 12.62 12.89 13.16 13.44 13.72 14.00 14.26 14.52 14.78 15.05 15.33 15.62 15.92 16.23 16.55 16.88 17.24 17.61 18.01 18.43 18.89 19.38 19.92 20.51 21.17 21.85 22.61 23.47 24.45 25.57 26.83 28.22 29.81 31.66 33.74 36.10 38.88 41.99 45.88 50.01 51.71 47.79 43.89 40.50 37.67 35.13 32.98 30.98 29.26 27.77 26.45 25.26 24.21 23.30 22.49 21.78 21.13 20.51 19.95 19.45 18.99 18.58 18.19 17.83 17.50 17.19 16.89 16.60 16.33 16.07 15.82 15.57 15.33 15.10 14.87 14.64 14.33 14.02 13.72 13.43 13.14 12.85 12.57 12.30 12.03 11.76 11.50 11.24 10.98 10.73 10.48
10.74 10.98 11.22 11.47 11.72 11.97 12.23 12.49 12.76 13.03 13.30 13.57 13.82 14.07 14.33 14.59 14.86 15.14 15.43 15.73 16.04 16.36 16.70 17.05 17.43 17.83 18.26 18.72 19.22 19.77 20.37 21.04 21.74 22.51 23.39 24.38 25.51 26.79 28.18 29.79 31.64 33.73 36.09 38.87 41.98 45.87 50.00 51.71 47.80 43.89 40.51 37.67 35.13 32.98 30.97 29.24 27.74 26.41 25.20 24.14 23.21 22.39 21.66 20.99 20.35 19.78 19.27 18.81 18.38 17.99 17.63 17.29 16.97 16.67 16.38 16.11 15.85 15.60 15.35 15.11 14.88 14.65 14.43 14.21 13.91 13.61 13.32 13.03 12.75 12.48 12.20 11.94 11.67 11.41 11.16 10.90 10.65 10.41
10.63 10.87 11.11 11.35 11.60 11.85 12.11 12.36 12.63 12.89 13.16 13.40 13.64 13.89 14.15 14.41 14.68 14.96 15.24 15.54 15.85 16.17 16.51 16.87 17.25 17.66 18.09 18.56 19.06 19.63 20.25 20.93 21.63 22.43 23.32 24.32 25.46 26.75 28.15 29.76 31.63 33.72 36.08 38.86 41.97 45.87 50.00 51.72 47.80 43.90 40.51 37.67 35.13 32.97 30.96 29.22 27.71 26.37 25.14 24.07 23.12 22.29 21.55 20.87 20.21 19.63 19.11 18.63 18.20 17.80 17.43 17.09 16.77 16.46 16.17 15.90 15.64 15.38 15.14 14.90 14.67 14.45 14.23 14.01 13.79 13.50 13.21 12.93 12.65 12.38 12.11 11.84 11.58 11.33 11.07 10.82 10.58 10.33
10.53 10.76 11.00 11.24 11.48 11.73 11.98 12.24 12.50 12.75 12.99 13.23 13.47 13.72 13.97 14.23 14.50 14.78 15.06 15.36 15.67 16.00 16.34 16.70 17.09 17.50 17.93 18.40 18.92 19.50 20.13 20.82 21.54 22.34 23.25 24.26 25.42 26.71 28.13 29.74 31.61 33.71 36.07 38.86 41.97 45.86 49.99 51.72 47.81 43.91 40.51 37.67 35.13 32.97 30.95 29.20 27.68 26.33 25.09 24.01 23.05 22.20 21.44 20.75 20.08 19.49 18.95 18.47 18.02 17.62 17.24 16.89 16.57 16.26 15.97 15.69 15.43 15.18 14.93 14.70 14.47 14.24 14.02 13.81 13.60 13.39 13.10 12.83 12.55 12.28 12.01 11.75 11.49 11.24 10.99 10.74 10.50 10.26
10.42 10.65 10.89 11.13 11.37 11.61 11.86 12.11 12.36 12.59 12.82 13.06 13.30 13.54 13.80 14.06 14.32 14.60 14.89 15.19 15.50 15.83 16.17 16.54 16.93 17.34 17.78 18.26 18.79 19.37 20.02 20.72 21.45 22.27 23.18 24.21 25.37 26.68 28.10 29.73 31.60 33.70 36.06 38.85 41.96 45.85 49.98 51.73 47.82 43.91 40.52 37.68 35.13 32.96 30.94 29.19 27.66 26.30 25.05 23.95 22.98 22.12 21.35 20.64 19.97 19.36 18.81 18.31 17.86 17.45 17.07 16.71 16.38 16.07 15.78 15.50 15.23 14.98 14.73 14.50 14.27 14.04 13.83 13.61 13.41 13.20 13.00 12.72 12.45 12.18 11.92 11.66 11.40 11.15 10.90 10.66 10.42 10.18
10.32 10.54 10.78 11.01 11.25 11.49 11.74 11.98 12.20 12.43 12.66 12.89 13.13 13.38 13.63 13.89 14.16 14.43 14.72 15.02 15.33 15.66 16.01 16.38 16.77 17.19 17.64 18.13 18.67 19.26 19.92 20.63 21.38 22.20 23.13 24.17 25.34 26.65 28.08 29.71 31.59 33.69 36.06 38.84 41.95 45.84 49.98 51.73 47.82 43.92 40.52 37.68 35.13 32.96 30.93 29.17 27.64 26.27 25.01 23.90 22.92 22.05 21.27 20.55 19.86 19.23 18.67 18.17 17.71 17.28 16.90 16.54 16.20 15.88 15.59 15.31 15.04 14.78 14.54 14.30 14.07 13.85 13.63 13.42 13.22 13.01 12.82 12.62 12.35 12.08 11.82 11.57 11.31 11.06 10.82 10.58 10.34 10.10
10.21 10.44 10.67 10.90 11.14 11.38 11.61 11.83 12.05 12.27 12.50 12.73 12.97 13.21 13.46 13.72 13.99 14.27 14.56 14.86 15.17 15.51 15.86 16.23 16.62 17.05 17.50 18.00 18.55 19.16 19.82 20.55 21.30 22.14 23.07 24.12 25.30 26.62 28.06 29.70 31.57 33.68 36.05 38.84 41.95 45.83 49.97 51.73 47.83 43.93 40.53 37.68 35.13 32.96 30.92 29.16 27.62 26.24 24.98 23.86 22.87 21.98 21.19 20.46 19.75 19.12 18.55 18.03 17.56 17.13 16.74 16.37 16.03 15.71 15.41 15.12 14.85 14.60 14.35 14.11 13.88 13.66 13.45 13.24 13.03 12.83 12.63 12.44 12.24 11.98 11.73 11.47 11.22 10.98 10.73 10.49 10.26 10.03
10.10 10.33 10.56 10.79 11.02 11.25 11.46 11.68 11.89 12.11 12.34 12.57 12.81 13.05 13.30 13.56 13.83 14.11 14.40 14.70 15.02 15.36 15.71 16.09 16.48 16.91 17.38 17.89 18.45 19.06 19.74 20.47 21.24 22.08 23.03 24.08 25.27 26.60 28.04 29.68 31.56 33.67 36.04 38.83 41.94 45.83 49.96 51.74 47.84 43.93 40.53 37.68 35.13 32.96 30.92 29.15 27.60 26.22 24.95 23.82 22.82 21.92 21.12 20.38 19.66 19.01 18.43 17.90 17.42 16.99 16.58 16.21 15.86 15.54 15.24 14.95 14.68 14.42 14.17 13.93 13.70 13.48 13.26 13.05 12.85 12.65 12.45 12.26 12.07 11.88 11.63 11.38 11.13 10.89 10.65 10.41 10.18 9.95
10.00 10.22 10.45 10.68 10.90 11.11 11.31 11.52 11.74 11.96 12.19 12.42 12.65 12.90 13.15 13.41 13.68 13.95 14.25 14.55 14.87 15.21 15.57 15.95 16.35 16.79 17.26 17.78 18.34 18.97 19.66 20.40 21.17 22.03 22.98 24.05 25.24 26.58 28.02 29.67 31.55 33.66 36.03 38.82 41.93 45.82 49.95 51.74 47.84 43.94 40.54 37.69 35.13 32.96 30.92 29.14 27.59 26.20 24.92 23.78 22.77 21.86 21.05 20.30 19.57 18.92 18.32 17.79 17.30 16.85 16.44 16.06 15.71 15.38 15.07 14.78 14.50 14.24 13.99 13.75 13.52 13.30 13.08 12.87 12.67 12.47 12.28 12.09 11.90 11.72 11.53 11.28 11.04 10.80 10.56 10.33 10.09 9.87
9.90 10.12 10.34 10.56 10.76 10.96 11.17 11.38 11.59 11.81 12.04 12.27 12.50 12.74 13.00 13.26 13.53 13.81 14.10 14.41 14.73 15.07 15.43 15.81 16.22 16.67 17.15 17.67 18.25 18.88 19.58 20.34 21.12 21.98 22.94 24.02 25.22 26.56 28.01 29.66 31.54 33.66 36.03 38.82 41.93 45.81 49.95 51.75 47.85 43.94 40.54 37.69 35.13 32.96 30.91 29.13 27.58 26.18 24.89 23.75 22.73 21.81 20.99 20.23 19.49 18.83 18.22 17.68 17.18 16.72 16.30 15.92 15.56 15.23 14.91 14.62 14.34 14.08 13.82 13.58 13.35 13.13 12.91 12.70 12.50 12.30 12.11 11.92 11.73 11.55 11.37 11.19 10.95 10.71 10.47 10.24 10.01 9.79
9.79 10.01 10.22 10.42 10.62 10.82 11.02 11.23 11.45 11.66 11.89 12.12 12.35 12.60 12.85 13.11 13.38 13.66 13.96 14.27 14.60 14.94 15.30 15.69 16.10 16.55 17.04 17.58 18.16 18.80 19.51 20.28 21.07 21.94 22.91 23.99 25.19 26.54 27.99 29.65 31.54 33.65 36.02 38.81 41.92 45.80 49.94 51.75 47.86 43.95 40.55 37.70 35.13 32.96 30.91 29.13 27.57 26.16 24.87 23.72 22.69 21.77 20.94 20.17 19.42 18.74 18.13 17.57 17.06 16.60 16.17 15.78 15.42 15.08 14.76 14.46 14.18 13.91 13.66 13.42 13.18 12.96 12.74 12.53 12.33 12.13 11.94 11.75 11.56 11.38 11.21 11.03 10.86 10.62 10.39 10.16 9.93 9.71
9.69 9.90 10.09 10.28 10.48 10.68 10.88 11.09 11.30 11.52 11.74 11.97 12.21 12.45 12.71 12.97 13.24 13.52 13.82 14.13 14.47 14.81 15.17 15.57 15.99 16.45 16.94 17.49 18.08 18.73 19.45 20.22 21.02 21.90 22.87 23.96 25.17 26.52 27.98 29.64 31.53 33.64 36.02 38.81 41.91 45.79 49.93 51.76 47.87 43.96 40.55 37.70 35.14 32.96 30.91 29.12 27.56 26.15 24.85 23.69 22.66 21.73 20.89 20.11 19.35 18.66 18.04 17.47 16.96 16.49 16.05 15.65 15.28 14.94 14.62 14.31 14.03 13.76 13.50 13.26 13.02 12.80 12.58 12.37 12.17 11.97 11.77 11.59 11.40 11.22 11.05 10.87 10.70 10.53 10.30 10.07 9.85 9.62
9.58 9.77 9.95 10.15 10.34 10.54 10.74 10.95 11.16 11.38 11.60 11.83 12.07 12.31 12.57 12.83 13.10 13.39 13.69 14.01 14.34 14.68 15.05 15.45 15.88 16.35 16.85 17.40 18.00 18.66 19.39 20.17 20.97 21.86 22.84 23.93 25.15 26.51 27.97 29.63 31.52 33.64 36.01 38.80 41.91 45.79 49.93 51.76 47.87 43.96 40.56 37.70 35.14 32.96 30.90 29.12 27.55 26.14 24.83 23.67 22.63 21.69 20.84 20.05 19.29 18.59 17.96 17.38 16.86 16.38 15.94 15.53 15.15 14.81 14.48 14.17 13.88 13.61 13.35 13.10 12.87 12.64 12.42 12.21 12.01 11.81 11.61 11.43 11.24 11.06 10.89 10.71 10.54 10.38 10.21 9.98 9.76 9.54
9.45 9.64 9.82 10.01 10.21 10.41 10.61 10.82 11.03 11.24 11.47 11.70 11.93 12.18 12.43 12.70 12.97 13.26 13.56 13.88 14.21 14.56 14.94 15.34 15.78 16.25 16.76 17.32 17.93 18.60 19.33 20.12 20.93 21.82 22.81 23.91 25.13 26.49 27.96 29.62 31.51 33.63 36.00 38.80 41.90 45.78 49.92 51.77 47.88 43.97 40.56 37.71 35.14 32.96 30.90 29.11 27.54 26.13 24.82 23.65 22.60 21.65 20.80 20.00 19.23 18.52 17.88 17.30 16.77 16.28 15.83 15.41 15.03 14.68 14.35 14.04 13.74 13.47 13.20 12.95 12.71 12.49 12.27 12.05 11.85 11.65 11.46 11.27 11.09 10.91 10.73 10.56 10.39 10.23 10.06 9.90 9.68 9.46
